Dominus_Dark_Funeral/scalable/apps/vmware-netcfg.svg

<svg xmlns="http://www.w3.org/2000/svg" xmlns:xlink="http://www.w3.org/1999/xlink" width="48" height="48" viewBox="0 0 12.7 12.7"><defs><linearGradient id="c"><stop offset="0"/><stop offset="1" stop-opacity="0"/></linearGradient><linearGradient id="b"><stop offset="0" stop-color="#f95"/><stop offset="1" stop-color="#37abc8"/></linearGradient><linearGradient id="a"><stop offset="0"/><stop offset="1" stop-opacity="0"/></linearGradient><linearGradient id="d"><stop offset="0"/><stop offset="1" stop-opacity="0"/></linearGradient><linearGradient xlink:href="#b" id="e" x1="1.756" y1="11.229" x2="8.946" y2="-.215" gradientUnits="userSpaceOnUse"/><linearGradient xlink:href="#c" id="g" x1=".996" y1="6.346" x2="11.69" y2="6.346" gradientUnits="userSpaceOnUse"/><linearGradient xlink:href="#d" id="f" gradientUnits="userSpaceOnUse" x1="1.606" y1="2.124" x2="12.118" y2="7.15"/></defs><path d="M6.35.1C4.81.1 3.57.39 2.66.97A3.67 3.67 0 0 0 1 4.22c0 1.91 1.54 4.47 2.01 5.2.54.85 1.13 1.61 1.65 2.16.68.7 1.21 1.03 1.69 1.03s1.01-.33 1.69-1.03a15.2 15.2 0 0 0 1.65-2.15c.47-.74 2-3.3 2-5.21 0-1.42-.57-2.54-1.65-3.25A6.75 6.75 0 0 0 6.35.09z" fill="url(#e)"/><path d="M7.634 11.912c.137-.118.256-.188.406-.342a15.2 15.2 0 0 0 .972-1.168 15.2 15.2 0 0 0 .678-.982c.235-.37.735-1.195 1.176-2.166.22-.486.427-1.008.578-1.528.034-.118.028-.226.056-.343L8.177 2.059l-.711.135-2.77-.037-.099 3.507L5.78 6.847 4.278 6.84l-1.152.564z" opacity=".5" fill="url(#f)"/><path d="M6.35.1C4.81.1 3.57.39 2.66.97A3.67 3.67 0 0 0 1 4.22c0 1.91 1.54 4.47 2.01 5.2.54.85 1.13 1.61 1.65 2.16.68.7 1.21 1.03 1.69 1.03s1.01-.33 1.69-1.03a15.2 15.2 0 0 0 1.65-2.15c.47-.74 2-3.3 2-5.21 0-1.42-.57-2.54-1.65-3.25A6.75 6.75 0 0 0 6.35.09zm0 .03C6.91.15 7.44.2 7.9.31a5.82 5.82 0 0 1 1.6.66 3.65 3.65 0 0 1 1.24 1.36c.14.27.25.57.32.88a4.61 4.61 0 0 1-.14 2.53c-.15.52-.36 1.04-.58 1.52-.44.97-.95 1.8-1.18 2.17a15.2 15.2 0 0 1-1.65 2.15 4.9 4.9 0 0 1-.92.78.96.96 0 0 1-.24.1.96.96 0 0 1-.24-.1 4.76 4.76 0 0 1-.92-.78 14.41 14.41 0 0 1-1.65-2.15 19.2 19.2 0 0 1-1.18-2.17c-.22-.48-.43-1-.58-1.52a4.6 4.6 0 0 1-.14-2.52 3.73 3.73 0 0 1 .84-1.64 3.65 3.65 0 0 1 1.45-1A6.83 6.83 0 0 1 6.35.13z" opacity=".2" fill="url(#g)"/><path d="M4.847 1.895l-.008.008a.398.398 0 0 0-.406.39v3.03c0 .22.187.398.406.398h1.129v.488a.764.764 0 0 0-.34.414H4.4a.764.764 0 0 0-.73-.52.764.764 0 0 0-.756.764.764.764 0 0 0 .763.763.764.764 0 0 0 .707-.487h1.26a.764.764 0 0 0 .706.487.764.764 0 0 0 .707-.487h1.259a.764.764 0 0 0 .707.487.764.764 0 0 0 .763-.763.764.764 0 0 0-.763-.764.764.764 0 0 0-.723.52H7.08a.764.764 0 0 0-.349-.422v-.48h1.137a.39.39 0 0 0 .39-.39V2.293a.4.4 0 0 0-.398-.398zm.143.549h2.72v2.729H4.99z" fill="#fff"/></svg>

<?xml version="1.0" encoding="UTF-8" standalone="no"?>
<svg
   xmlns:dc="http://purl.org/dc/elements/1.1/"
   xmlns:cc="http://creativecommons.org/ns#"
   xmlns:rdf="http://www.w3.org/1999/02/22-rdf-syntax-ns#"
   xmlns:svg="http://www.w3.org/2000/svg"
   xmlns="http://www.w3.org/2000/svg"
   xmlns:xlink="http://www.w3.org/1999/xlink"
   xmlns:sodipodi="http://sodipodi.sourceforge.net/DTD/sodipodi-0.dtd"
   xmlns:inkscape="http://www.inkscape.org/namespaces/inkscape"
   width="48"
   height="48"
   viewBox="0 0 12.7 12.7"
   version="1.1"
   id="svg35"
   sodipodi:docname="vmware-netcfg.svg"
   inkscape:version="0.92.4 (5da689c313, 2019-01-14)">
  <metadata
     id="metadata39">
    <rdf:RDF>
      <cc:Work
         rdf:about="">
        <dc:format>image/svg+xml</dc:format>
        <dc:type
           rdf:resource="http://purl.org/dc/dcmitype/StillImage" />
        <dc:title></dc:title>
      </cc:Work>
    </rdf:RDF>
  </metadata>
  <sodipodi:namedview
     pagecolor="#ffffff"
     bordercolor="#666666"
     borderopacity="1"
     objecttolerance="10"
     gridtolerance="10"
     guidetolerance="10"
     inkscape:pageopacity="0"
     inkscape:pageshadow="2"
     inkscape:window-width="1112"
     inkscape:window-height="480"
     id="namedview37"
     showgrid="false"
     inkscape:zoom="4.9166667"
     inkscape:cx="2.1355932"
     inkscape:cy="24"
     inkscape:window-x="0"
     inkscape:window-y="25"
     inkscape:window-maximized="0"
     inkscape:current-layer="svg35" />
  <defs
     id="defs25">
    <linearGradient
       id="c">
      <stop
         offset="0"
         id="stop2" />
      <stop
         offset="1"
         stop-opacity="0"
         id="stop4" />
    </linearGradient>
    <linearGradient
       id="b">
      <stop
         offset="0"
         stop-color="#f95"
         id="stop7" />
      <stop
         offset="1"
         stop-color="#37abc8"
         id="stop9" />
    </linearGradient>
    <linearGradient
       id="a">
      <stop
         offset="0"
         id="stop12" />
      <stop
         offset="1"
         stop-opacity="0"
         id="stop14" />
    </linearGradient>
    <linearGradient
       id="d">
      <stop
         offset="0"
         id="stop17" />
      <stop
         offset="1"
         stop-opacity="0"
         id="stop19" />
    </linearGradient>
    <linearGradient
       xlink:href="#b"
       id="e"
       x1="1.756"
       y1="11.229"
       x2="8.946"
       y2="-.215"
       gradientUnits="userSpaceOnUse" />
    <linearGradient
       xlink:href="#c"
       id="g"
       x1=".996"
       y1="6.346"
       x2="11.69"
       y2="6.346"
       gradientUnits="userSpaceOnUse" />
    <linearGradient
       xlink:href="#d"
       id="f"
       gradientUnits="userSpaceOnUse"
       x1="1.606"
       y1="2.124"
       x2="12.118"
       y2="7.15" />
  </defs>
  <path
     d="M 6.35,0.1 C 4.81,0.1 3.57,0.39 2.66,0.97 A 3.67,3.67 0 0 0 1,4.22 c 0,1.91 1.54,4.47 2.01,5.2 0.54,0.85 1.13,1.61 1.65,2.16 0.68,0.7 1.21,1.03 1.69,1.03 0.48,0 1.01,-0.33 1.69,-1.03 A 15.2,15.2 0 0 0 9.69,9.43 c 0.47,-0.74 2,-3.3 2,-5.21 0,-1.42 -0.57,-2.54 -1.65,-3.25 A 6.75,6.75 0 0 0 6.35,0.09 Z"
     id="path27"
     style="fill:url(#e)"
     inkscape:connector-curvature="0" />
  <path
     d="M 7.634,11.912 C 7.771,11.794 7.89,11.724 8.04,11.57 A 15.2,15.2 0 0 0 9.012,10.402 15.2,15.2 0 0 0 9.69,9.42 C 9.925,9.05 10.425,8.225 10.866,7.254 11.086,6.768 11.293,6.246 11.444,5.726 11.478,5.608 11.472,5.5 11.5,5.383 L 8.177,2.059 7.466,2.194 4.696,2.157 4.597,5.664 5.78,6.847 4.278,6.84 3.126,7.404 Z"
     id="path29"
     style="opacity:0.5;fill:url(#f)"
     inkscape:connector-curvature="0" />
  <path
     d="M 6.35,0.1 C 4.81,0.1 3.57,0.39 2.66,0.97 A 3.67,3.67 0 0 0 1,4.22 c 0,1.91 1.54,4.47 2.01,5.2 0.54,0.85 1.13,1.61 1.65,2.16 0.68,0.7 1.21,1.03 1.69,1.03 0.48,0 1.01,-0.33 1.69,-1.03 A 15.2,15.2 0 0 0 9.69,9.43 c 0.47,-0.74 2,-3.3 2,-5.21 0,-1.42 -0.57,-2.54 -1.65,-3.25 A 6.75,6.75 0 0 0 6.35,0.09 Z m 0,0.03 C 6.91,0.15 7.44,0.2 7.9,0.31 a 5.82,5.82 0 0 1 1.6,0.66 3.65,3.65 0 0 1 1.24,1.36 c 0.14,0.27 0.25,0.57 0.32,0.88 A 4.61,4.61 0 0 1 10.92,5.74 C 10.77,6.26 10.56,6.78 10.34,7.26 9.9,8.23 9.39,9.06 9.16,9.43 A 15.2,15.2 0 0 1 7.51,11.58 4.9,4.9 0 0 1 6.59,12.36 0.96,0.96 0 0 1 6.35,12.46 0.96,0.96 0 0 1 6.11,12.36 4.76,4.76 0 0 1 5.19,11.58 14.41,14.41 0 0 1 3.54,9.43 19.2,19.2 0 0 1 2.36,7.26 C 2.14,6.78 1.93,6.26 1.78,5.74 A 4.6,4.6 0 0 1 1.64,3.22 3.73,3.73 0 0 1 2.48,1.58 3.65,3.65 0 0 1 3.93,0.58 6.83,6.83 0 0 1 6.35,0.13 Z"
     id="path31"
     style="opacity:0.2;fill:url(#g)"
     inkscape:connector-curvature="0" />
  <path
     d="M 4.847,1.895 4.839,1.903 a 0.398,0.398 0 0 0 -0.406,0.39 v 3.03 c 0,0.22 0.187,0.398 0.406,0.398 H 5.968 V 6.209 A 0.764,0.764 0 0 0 5.628,6.623 H 4.4 A 0.764,0.764 0 0 0 3.67,6.103 0.764,0.764 0 0 0 2.914,6.867 0.764,0.764 0 0 0 3.677,7.63 0.764,0.764 0 0 0 4.384,7.143 h 1.26 A 0.764,0.764 0 0 0 6.35,7.63 0.764,0.764 0 0 0 7.057,7.143 H 8.316 A 0.764,0.764 0 0 0 9.023,7.63 0.764,0.764 0 0 0 9.786,6.867 0.764,0.764 0 0 0 9.023,6.103 0.764,0.764 0 0 0 8.3,6.623 H 7.08 A 0.764,0.764 0 0 0 6.731,6.201 v -0.48 h 1.137 a 0.39,0.39 0 0 0 0.39,-0.39 V 2.293 A 0.4,0.4 0 0 0 7.86,1.895 Z M 4.99,2.444 H 7.71 V 5.173 H 4.99 Z"
     id="path33"
     inkscape:connector-curvature="0"
     style="fill:#ffffff" />
</svg>
